dist/svgs/upload.svg

<!-- Generated by IcoMoon.io -->
<svg version="1.1" xmlns="http://www.w3.org/2000/svg" width="24" height="24" viewBox="0 0 24 24">
<title>upload</title>
<path d="M11 4.4v11.6h2v-11.6l3 3 1.4-1.4-5.4-5.4-5.4 5.4 1.4 1.4z"></path>
<path d="M16 9v2h3v11h-14v-11h3v-2h-5v15h18v-15z"></path>
</svg>

<svg xmlns="http://www.w3.org/2000/svg" width="24" height="24" viewBox="0 0 24 24"><title>upload</title><path d="M11 4.4V16h2V4.4l3 3L17.4 6 12 .6 6.6 6 8 7.4z"/><path d="M16 9v2h3v11H5V11h3V9H3v15h18V9z"/></svg>
